la/poo-storm-solid.svg

<svg xmlns="http://www.w3.org/2000/svg" viewBox="0 0 32 32" height="1em" width="1em">
  <path d="M 17 4 C 14.162 4 11 6.6132812 11 10.363281 L 11 11 L 10 11 C 7.794 11 6 12.794 6 15 C 6 15.408 6.0645 15.811313 6.1875 16.195312 C 4.3455 16.758312 3 18.475 3 20.5 C 3 22.981 5.019 25 7.5 25 L 15 25 L 15 24.410156 L 10.769531 23 L 7.5 23 C 6.121 23 5 21.879 5 20.5 C 5 19.121 6.121 18 7.5 18 L 10.035156 18 L 8.5234375 16.328125 C 8.1864375 15.954125 8 15.483 8 15 C 8 13.897 8.897 13 10 13 L 13 13 L 13 10.363281 C 13 8.3622813 14.426125 6.7265 15.953125 6.1875 C 16.026125 8.0915 16.851937 8.879375 17.835938 9.609375 C 18.536938 10.130375 19 10.474 19 12 L 19 13 L 22 13 C 23.103 13 24 13.897 24 15 C 24 15.483 23.813562 15.954125 23.476562 16.328125 L 21.964844 18 L 24.5 18 C 25.879 18 27 19.121 27 20.5 C 27 21.879 25.879 23 24.5 23 L 21.923828 23 L 21 25 L 24.5 25 C 26.981 25 29 22.981 29 20.5 C 29 18.475 27.6555 16.758312 25.8125 16.195312 C 25.9365 15.811312 26 15.408 26 15 C 26 12.794 24.206 11 22 11 L 20.933594 11 C 20.676594 9.227 19.740344 8.5319062 19.027344 8.0039062 C 18.280344 7.4489063 17.785141 7.0814688 17.994141 5.1054688 L 18.111328 4 L 17 4 z M 17 15.5 L 14 21.96875 L 17 22.96875 L 17 28.5 L 20 22 L 17 21 L 17 15.5 z"/>
</svg>

<svg xmlns="http://www.w3.org/2000/svg" viewBox="0 0 32 32" height="1em" width="1em">
  <path d="M17 4c-2.838 0-6 2.613-6 6.363V11h-1c-2.206 0-4 1.794-4 4 0 .408.064.811.188 1.195A4.51 4.51 0 0 0 3 20.5C3 22.981 5.019 25 7.5 25H15v-.59L10.77 23H7.5A2.502 2.502 0 0 1 5 20.5C5 19.121 6.121 18 7.5 18h2.535l-1.512-1.672A1.988 1.988 0 0 1 8 15c0-1.103.897-2 2-2h3v-2.637c0-2 1.426-3.636 2.953-4.175.073 1.904.899 2.691 1.883 3.421.7.521 1.164.865 1.164 2.391v1h3c1.103 0 2 .897 2 2 0 .483-.186.954-.523 1.328L21.965 18H24.5c1.379 0 2.5 1.121 2.5 2.5S25.879 23 24.5 23h-2.576L21 25h3.5c2.481 0 4.5-2.019 4.5-4.5a4.508 4.508 0 0 0-3.188-4.305A3.89 3.89 0 0 0 26 15c0-2.206-1.794-4-4-4h-1.066c-.257-1.773-1.194-2.468-1.907-2.996-.747-.555-1.242-.923-1.033-2.899L18.111 4H17zm0 11.5-3 6.469 3 1V28.5l3-6.5-3-1v-5.5z"/>
</svg>
